X:5893
T:Gan Ainm
R:Jig
S:
H:
N:Slide?
D:Milltown Malbay Concertina Recital
Z:Adrian Scahill
M:6/8
L:1/8
K:D
FAA B{cB}AF|~A3 DEF|~A3 BAF|e3 e3D|\
FAA B{cB}AF|~A3 DEF|~A3 (3BcB A|d3 d3:|||
Add f2d|(3efe d Bdd|Add (3fgf d|e3 edB|\
Add f2d|(3efe d B2b|a2f eaf|dfe d3:||


